X:1
T:Title
%%score { ( 1 3 ) | 2 }
L:1/8
M:3/4
K:A
V:1 treble nm="Grand Piano"
V:3 treble 
V:2 bass 
V:1
 z2 z[Q:1/4=82] [CE] [CE][CE] | [CA]3 [Ec] [EB][DG] | [CA]3 [Ec] BG | A2 GF [^DB][DB] |[M:3/8] E3 | %5
 BBB |[M:3/4] c3 B [EA][Ec] | [EB]3 [CE] [CA][EG] | z2 d[CFB] [CEA][B,DG] |[M:3/8] [A,CA]3 |] %10
V:2
 z2 z [A,,A,] [A,,A,][A,,A,] | [A,,A,]3 [A,,A,] [E,G,][E,B,] | [A,,A,]3 [A,,A,] [E,G,E][E,B,E] | %3
 [F,A,C]3 [F,A,C] [B,,A,][B,,A,] |[M:3/8] [E,G,]3 | [E,G,E][E,G,E][E,G,E] | %6
[M:3/4] [A,E]3 [E,G,E] [C,A,][A,,A,] | [E,G,]3 [A,,A,] [A,,A,][C,A,] | [D,A,]3 D, E,E, | %9
[M:3/8] A,,3 |] %10
V:3
 x6 | x6 | x6 | x6 |[M:3/8] x3 | x3 |[M:3/4] x6 | x6 | F4 z2 |[M:3/8] x3 |] %10

